assets/images/profileTab.svg

<svg width="25" height="24" viewBox="0 0 25 24" fill="none" xmlns="http://www.w3.org/2000/svg">
<circle cx="12.5" cy="7" r="3" stroke="#848C9C" stroke-width="2"/>
<path d="M19.5 15V18C19.5 19.1046 18.6046 20 17.5 20H7.5C6.39543 20 5.5 19.1046 5.5 18V15C5.5 13.8954 6.39543 13 7.5 13H17.5C18.6046 13 19.5 13.8954 19.5 15Z" stroke="#848C9C" stroke-width="2"/>
</svg>

<svg xmlns="http://www.w3.org/2000/svg" width="25" height="24" fill="none"><circle cx="12.5" cy="7" r="3" stroke="#848C9C" stroke-width="2"/><path stroke="#848C9C" stroke-width="2" d="M19.5 15v3a2 2 0 0 1-2 2h-10a2 2 0 0 1-2-2v-3a2 2 0 0 1 2-2h10a2 2 0 0 1 2 2Z"/></svg>
